!!!COM:	Bach, Johann Sebastian
!!!CDT:	1685/02/21/-1750/07/28/
!!!OTL@@DE:	Schm&uuml;cke dich, o liebe Seele
!!!SCT:	BWV 180/7
!!!PC#:	22
!!!AGN:	chorale
**kern	**kern	**kern	**kern
*ICvox	*ICvox	*ICvox	*ICvox
*Ibass	*Itenor	*Ialto	*Isoprn
*I"Bass	*I"Tenor	*I"Alto	*I"Soprano
*>[A,A,B]	*>[A,A,B]	*>[A,A,B]	*>[A,A,B]
*>norep[A,B]	*>norep[A,B]	*>norep[A,B]	*>norep[A,B]
*>A	*>A	*>A	*>A
*clefF4	*clefGv2	*clefG2	*clefG2
*k[b-e-a-]	*k[b-e-a-]	*k[b-e-a-]	*k[b-e-a-]
*E-:	*E-:	*E-:	*E-:
*M4/4	*M4/4	*M4/4	*M4/4
*met(c)	*met(c)	*met(c)	*met(c)
*MM100	*MM100	*MM100	*MM100
=1-	=1-	=1-	=1-
4E-	4B-	4e-	4g
4BB-	8B-L	4d	4f
.	8A-J	.	.
4C	4G	4c	4e-
4D	4F	4B-	4f
=2	=2	=2	=2
4E-	8E-L	4B-	8gL
.	8FJ	.	8a-J
8GGL	4G	4e-	4b-
8AA-J	.	.	.
2BB-	8FL	4e-	2a-
.	8E-J	.	.
.	4F	4d	.
=3	=3	=3	=3
2EE-;	2E-;	2e-;	2g;
4D	4B-	4f	4b-
4E-	4B-	4e-	4g
=4	=4	=4	=4
8CL	4c	4e-	4a-
8DJ	.	.	.
4E-	4B-	8e-L	8gL
.	.	8dJ	8fJ
4AA-	4c	8cL	8e-L
.	.	8dJ	8fJ
8GGL	4B-	4e-	4g
8AA-J	.	.	.
=5	=5	=5	=5
2BB-	8B-L	4e-	2f
.	16A-L	.	.
.	16GJJ	.	.
.	4A-	4d	.
2EE-;	2G;	2B-;	2e-;
=6:|!	=6:|!	=6:|!	=6:|!
*>B	*>B	*>B	*>B
4E-	4e-	4g	4b-
4D	8AL	4f	8ccL
.	8BJ	.	8ddJ
8CL	4c	8e-L	4ee-
8D	.	8fJ	.
8E-	4c	4g	4ee-
8FJ	.	.	.
=7	=7	=7	=7
4.G	8B-XL	4g	8ddL
.	8AJ	.	8ccJ
.	4B-	4d	8b-L
8F	.	.	8ccJ
4E-	4B-	4g	2cc
4F	4A	8fL	.
.	.	8e-J	.
=8	=8	=8	=8
2BB-;	2B-;	2d;	2b-;
4E-	4G	4e-	4b-
4AA-	4A-X	8e-L	8ccL
.	.	8fJ	8ddJ
=9	=9	=9	=9
8GGL	8B-L	4g	4ee-
8FFJ	8AJ	.	.
8GGL	8B-L	4g	4ee-
8AAnXJ	8cJ	.	.
8BB-L	8dL	4f	8ddL
8CJ	8e-J	.	8ccJ
8DL	8fL	8fL	8b-L
8E-J	8B-J	8gJ	8ccJ
=10	=10	=10	=10
4F	4B-	8fL	2cc
.	.	16e-L	.
.	.	16dJJ	.
4FF	4A	4e-	.
2BB-;	2B-;	2d;	2b-;
=11	=11	=11	=11
4B-	4B-	4d	4f
8A-XL	4B-	4e-	4g
8GJ	.	.	.
4F	8A-L	8dL	4a-
.	8GJ	8e-J	.
8E-L	4F	4f	4a-
8DJ	.	.	.
=12	=12	=12	=12
4E-	4B-	8e-L	8gL
.	.	8gJ	8b-J
4AA-	4c	8fL	8a-L
.	.	8e-J	8gJ
4BB-	8dL	4d	4f
.	8cJ	.	.
4BB-;	4B-;	4d;	4f;
=13	=13	=13	=13
4GG	4B-	4d	4b-
4C	4B-	[4e-	4g
4FF	4A-	8e-L]	4a-
.	.	8dJ	.
4GG	4B-	8e-L	8gL
.	.	8dJ	8fJ
=14	=14	=14	=14
4AA-	4c	8cL	8e-L
.	.	8dJ	8fJ
8GGL	4B-	4e-	4g
8AA-J	.	.	.
2BB-	8B-L	4e-	2f
.	16A-L	.	.
.	16GJJ	.	.
.	4A-	4d	.
=15	=15	=15	=15
1EE-;	1G;	1B-;	1e-;
==	==	==	==
*-	*-	*-	*-
!!!hum2abc: -Q ''
!!!title: @{PC#}. @{OTL@@DE}
!!!YOR1: 371 vierstimmige Choralges&auml;nge von Johann Sebastian Bach, 
!!!YOR2: 4th ed. by Alfred D&ouml;rffel (Leipzig: Breitkopf und H&auml;rtel, 
!!!YOR2: c.1875). 178 pp. Plate "V.A.10".  reprint: J.S. Bach, 371 Four-Part 
!!!YOR4: Chorales (New York: Associated Music Publishers, Inc., c.1940).
!!!SMS: B&H, 4th ed, Alfred D&ouml;rffel, c.1875, plate V.A.10
!!!EED:  Craig Stuart Sapp
!!!EEV:  2009/05/22
